X:1
T:Title
%%score { ( 1 3 4 ) | ( 2 5 6 ) }
L:1/8
M:4/4
K:F
V:1 treble nm="Grand Piano"
V:3 treble 
V:4 treble 
V:2 bass 
V:5 bass 
V:6 bass 
V:1
 z4 z2[Q:1/4=94] F>G | A>G AB d<c F>G | A6 [GB]>[FA] |[M:3/4] [EG]>[E^F] [EG][=FA] [GB]2 | %4
[M:1/4] [Bd]>[Bd] |[M:4/4] [Ac]2 [FA]>[GB] [Ac]2 FG | A<c cd c<A [DG]>[EA] |[M:3/4] F6 | %8
[M:1/4] F>G |[M:4/4] A c3- c2 z2 | A6 z2 | A c3- c2 z2 | G6 z2 |[M:3/4] F>E F>G A2 |[M:1/4] F>F | %15
[M:9/8] [DB]>[CA][DB] [Fd] c2- cF>G |[M:4/4] A c3- c2 z2 |[M:3/4] [A,CF]6 |] %18
V:2
 z4 z2 [F,A,]>[F,B,F] | [F,CF]>[F,B,F] [F,CF][F,B,F] [F,A,F]<[F,A,F] [F,A,]>[F,B,F] | %2
 [F,CF]6 [E,C]>[F,C] |[M:3/4] [C,C]>[C,C] [C,C][C,C] [C,C]2 |[M:1/4] [C,C]>[C,C] | %5
[M:4/4] [F,C]2 [F,C]>[F,C] [F,F]2 [F,A,][F,B,F] | %6
 [F,CF]<[F,A,F] [F,A,F][F,B,F] [F,A,F]<[F,CF] [C,B,]>[C,C] |[M:3/4] [F,A,]6 | %8
[M:1/4] [F,A,]>[K:treble][F,B,F] |[M:4/4] z A3- A2[K:bass] z2 | %10
 .[CF]2 E>D C2 [F,A,]>[K:treble][F,B,F] | z A3- A2[K:bass] z2 | z2 E4 [C,C]>[C,B,] | %13
[M:3/4] [F,A,C]>[F,G,C] [F,A,C]>[F,B,E] [F,CF]2 |[M:1/4] [F,A,]>[F,A,_E] | %15
[M:9/8] [B,,B,]>[B,,B,][B,,B,] [B,,B,] [F,A,F]2- [F,A,F][F,A,]>[K:treble][F,B,F] | %16
[M:4/4] z A3- A2[K:bass] z2 |[M:3/4] F,6 |] %18
V:3
 x8 | x8 | x8 |[M:3/4] x6 |[M:1/4] x2 |[M:4/4] x8 | x8 |[M:3/4] x6 |[M:1/4] x2 | %9
[M:4/4] z/ F3/2 z2 z4 | z/ F3/2- F4 F>G | z/ F3/2 z2 z4 | [CE]2 z z/ D/ C2 [FA]>[EG] |[M:3/4] x6 | %14
[M:1/4] x2 |[M:9/8] x9 |[M:4/4] z/ F3/2 z2 z4 |[M:3/4] x6 |] %18
V:4
 x8 | x8 | x8 |[M:3/4] x6 |[M:1/4] x2 |[M:4/4] x8 | x8 |[M:3/4] x6 |[M:1/4] x2 | %9
[M:4/4] z2 ED C<A, F>G | x8 | z2 ED .C2 [CGB]>[CFA] | x8 |[M:3/4] x6 |[M:1/4] x2 |[M:9/8] x9 | %16
[M:4/4] z2 ED .C2 [B,EG]>[CEA] |[M:3/4] x6 |] %18
V:5
 x8 | x8 | x8 |[M:3/4] x6 |[M:1/4] x2 |[M:4/4] x8 | x8 |[M:3/4] x6 |[M:1/4] x3/2[K:treble] x/ | %9
[M:4/4] .[CF]2 z2 F,2[K:bass] [F,A,]>[F,B,F] | F,6 z2[K:treble] | .[CF]2 z2 z/ C3/2[K:bass] E,>F, | %12
 C,6 z2 |[M:3/4] x6 |[M:1/4] x2 |[M:9/8] x17/2[K:treble] x/ | %16
[M:4/4] .[CF]2 z2 z/[K:bass] A,3/2 C,>C, |[M:3/4] x6 |] %18
V:6
 x8 | x8 | x8 |[M:3/4] x6 |[M:1/4] x2 |[M:4/4] x8 | x8 |[M:3/4] x6 |[M:1/4] x3/2[K:treble] x/ | %9
[M:4/4] F,4 z4[K:bass] | x15/2[K:treble] x/ | F,4 F,2[K:bass] z2 | x8 |[M:3/4] x6 |[M:1/4] x2 | %15
[M:9/8] x17/2[K:treble] x/ |[M:4/4] F,4 F,2[K:bass] z2 |[M:3/4] x6 |] %18

